src/components/content/Icon/distinctive/collaboration.svg

<svg width="100" height="100" viewBox="0 0 100 100" fill="none" xmlns="http://www.w3.org/2000/svg">
<path d="M77.0804 27.7C73.6668 23.9093 68.9283 21.8229 63.7377 21.8229C58.1564 21.8229 53.6595 24.2906 50.0002 29.3604C46.3418 24.2906 41.8439 21.8229 36.2627 21.8229C31.072 21.8229 26.3335 23.9104 22.92 27.7C19.6595 31.3198 17.8647 36.1187 17.8647 41.2156C17.8647 49.4698 21.8377 57.6135 29.672 65.4198C37.396 73.1239 46.7647 78.3177 49.4522 79.725C49.4918 79.7458 49.5325 79.7552 49.5741 79.7614C49.6325 79.7979 49.6981 79.8187 49.7658 79.8187C49.795 79.8187 49.8252 79.8145 49.8543 79.8073C49.8825 79.8145 49.9116 79.8187 49.9418 79.8187C49.9606 79.8187 49.9804 79.8166 49.9991 79.8135C50.0189 79.8166 50.0377 79.8187 50.0564 79.8187C50.0866 79.8187 50.1158 79.8135 50.1439 79.8073C50.1731 79.8145 50.2033 79.8187 50.2325 79.8187C50.3002 79.8187 50.3658 79.7979 50.4241 79.7614C50.4658 79.7562 50.5064 79.7458 50.546 79.725C53.2335 78.3166 62.6022 73.1239 70.3262 65.4198C78.1616 57.6135 82.1335 49.4698 82.1335 41.2156C82.1335 36.1198 80.3377 31.3198 77.0783 27.7H77.0804ZM50.0002 30.5333C50.3793 30.952 51.1262 31.8937 51.8908 33.5187C53.7116 37.3885 54.2252 42.077 54.3345 45.3281C54.7793 58.4979 51.0845 74.0062 50.0002 78.2416C48.9147 74.0062 45.22 58.4989 45.6658 45.3281C45.7762 42.076 46.2887 37.3885 48.1095 33.5187C48.8741 31.8937 49.621 30.952 50.0002 30.5333ZM44.9366 45.3041C44.5064 58.0187 47.9012 72.8739 49.146 77.8395C47.9502 75.9541 45.7647 72.3208 43.6533 67.8385C40.7929 61.7656 37.4877 52.8468 37.9866 44.8468C38.2022 41.3812 38.971 38.4635 40.271 36.175C41.3022 34.3583 42.671 32.9312 44.3377 31.9322C46.2439 30.7906 48.1179 30.4718 49.1606 30.3864C47.92 31.9093 45.245 36.2177 44.9377 45.3041H44.9366ZM55.0637 45.3041C54.7564 36.2177 52.0814 31.9093 50.8408 30.3864C51.8825 30.4718 53.7575 30.7906 55.6637 31.9322C57.3304 32.9312 58.6991 34.3583 59.7304 36.175C61.0304 38.4635 61.7981 41.3812 62.0147 44.8468C62.5127 52.8458 59.2085 61.7645 56.3481 67.8385C54.2366 72.3208 52.0512 75.9541 50.8554 77.8395C52.1002 72.8739 55.495 58.0187 55.0647 45.3041H55.0637ZM49.0564 29.6593C47.9356 29.7531 46.0002 30.0958 43.996 31.2875C42.2116 32.3479 40.7502 33.8635 39.6502 35.7916C38.2877 38.1812 37.4825 41.2125 37.2595 44.802C36.7512 52.9593 40.1012 62.0073 43.0002 68.1604C44.8543 72.0958 46.7658 75.3822 48.0252 77.4208C46.4241 75.8583 44.2679 73.3645 41.8366 70.2354C38.6054 66.0781 35.5825 61.6906 34.6512 59.8031C32.4647 55.376 31.3095 50.6395 31.3095 46.1062C31.3095 43.4302 31.795 40.6822 32.7137 38.1593C33.745 35.3281 35.0491 33.225 36.5908 31.9062C38.3866 30.3708 40.6887 29.3323 43.0731 28.9823C44.4075 28.7864 45.7095 28.8593 46.8085 28.9552C47.7533 29.0385 48.5054 29.275 49.0575 29.6593H49.0564ZM51.9762 77.4208C53.2356 75.3822 55.147 72.0948 57.0012 68.1604C59.9002 62.0062 63.2502 52.9593 62.7418 44.802C62.5179 41.2125 61.7137 38.1812 60.3512 35.7916C59.2512 33.8635 57.7887 32.3479 56.0054 31.2875C54.0012 30.0958 52.0668 29.7531 50.945 29.6593C51.497 29.2739 52.2491 29.0385 53.1939 28.9552C54.2918 28.8583 55.595 28.7864 56.9293 28.9823C59.3137 29.3323 61.6158 30.3708 63.4116 31.9062C64.9533 33.225 66.2575 35.3291 67.2887 38.1593C68.2075 40.6822 68.6929 43.4302 68.6929 46.1062C68.6929 50.6395 67.5377 55.376 65.3512 59.8031C64.4189 61.6906 61.397 66.0781 58.1658 70.2354C55.7335 73.3645 53.5783 75.8583 51.9772 77.4208H51.9762ZM47.9731 28.4072C47.6335 28.3229 47.2658 28.2635 46.871 28.2281C45.797 28.1333 44.3825 28.052 42.9658 28.2593C40.447 28.6291 38.0137 29.727 36.1158 31.351C34.4772 32.752 33.1022 34.9583 32.0272 37.9093C31.0793 40.5114 30.5783 43.3458 30.5783 46.1062C30.5783 50.751 31.7595 55.5989 33.995 60.126C35.472 63.1177 41.6012 71.5739 46.0429 76.4083C42.6179 73.6562 38.621 69.6895 35.2127 66.3052C34.871 65.9666 34.5345 65.6312 34.2022 65.3031C28.9272 60.0822 24.9502 50.8114 24.9502 43.7385C24.9502 39.7479 26.4085 35.325 28.8522 31.9073C31.5804 28.0906 35.1887 25.9895 39.0127 25.9895C41.7668 25.9895 43.721 26.2625 45.347 26.876C46.3366 27.2489 47.2002 27.751 47.9731 28.4083V28.4072ZM66.0043 60.126C68.2397 55.5989 69.421 50.751 69.421 46.1062C69.421 43.3458 68.92 40.5114 67.972 37.9093C66.8981 34.9593 65.522 32.7531 63.8835 31.351C61.9845 29.727 59.5522 28.6291 57.0335 28.2593C55.6168 28.051 54.2022 28.1333 53.1283 28.2281C52.7335 28.2625 52.3658 28.3229 52.0262 28.4072C52.7991 27.75 53.6627 27.2479 54.6522 26.875C56.2783 26.2625 58.2314 25.9885 60.9866 25.9885C64.8106 25.9885 68.42 28.0906 71.147 31.9062C73.5897 35.3239 75.0491 39.7468 75.0491 43.7375C75.0491 50.8104 71.072 60.0812 65.797 65.3031C65.4658 65.6312 65.1283 65.9666 64.7866 66.3052C61.3783 69.6895 57.3814 73.6562 53.9564 76.4083C58.3981 71.5729 64.5272 63.1177 66.0043 60.126ZM18.5939 41.2156C18.5939 36.3 20.3231 31.6739 23.4627 28.1885C26.7366 24.5541 31.2825 22.552 36.2637 22.552C40.3064 22.552 43.7585 23.9156 46.7241 26.6989C44.5585 25.5625 41.9877 25.2604 39.0137 25.2604C34.947 25.2604 31.1283 27.4708 28.2595 31.4833C25.7314 35.0197 24.222 39.601 24.222 43.7385C24.222 47.3395 25.2095 51.5833 27.0022 55.6885C28.745 59.6791 31.12 63.277 33.6897 65.8218C34.021 66.15 34.3585 66.4843 34.6991 66.8239C37.8179 69.9208 41.1908 73.2687 44.2533 75.8802C40.2293 73.3604 34.8981 69.6031 30.1866 64.9041C22.4939 57.2395 18.5939 49.2697 18.5939 41.2166V41.2156ZM69.8137 64.9031C65.1022 69.602 59.771 73.3593 55.747 75.8791C58.8095 73.2666 62.1825 69.9198 65.3012 66.8229C65.6429 66.4843 65.9793 66.15 66.3106 65.8218C68.8804 63.2781 71.2564 59.6791 72.9991 55.6885C74.7918 51.5833 75.7793 47.3395 75.7793 43.7385C75.7793 39.602 74.27 35.0208 71.7418 31.4833C68.8731 27.4697 65.0543 25.2604 60.9877 25.2604C58.0137 25.2604 55.4429 25.5625 53.2772 26.6989C56.2418 23.9166 59.695 22.552 63.7377 22.552C68.7189 22.552 73.2647 24.5541 76.5387 28.1885C79.6783 31.6739 81.4075 36.3 81.4075 41.2156C81.4075 49.2687 77.5075 57.2385 69.8147 64.9031H69.8137Z" fill="#0B301A"/>
</svg>

<svg xmlns="http://www.w3.org/2000/svg" width="100" height="100" fill="none" viewBox="0 0 100 100"><path fill="#0b301a" d="M77.08 27.7c-3.413-3.79-8.152-5.877-13.342-5.877-5.582 0-10.078 2.468-13.738 7.537-3.658-5.07-8.156-7.537-13.737-7.537-5.191 0-9.93 2.087-13.343 5.877-3.26 3.62-5.055 8.419-5.055 13.516 0 8.254 3.973 16.398 11.807 24.204 7.724 7.704 17.093 12.898 19.78 14.305q.06.028.122.036a.36.36 0 0 0 .28.046.4.4 0 0 0 .145.007.4.4 0 0 0 .057.005q.046 0 .088-.012.045.011.089.012.102-.001.191-.058a.4.4 0 0 0 .122-.036c2.688-1.408 12.056-6.601 19.78-14.305 7.836-7.806 11.808-15.95 11.808-24.204 0-5.096-1.796-9.896-5.056-13.516zM50 30.533c.38.419 1.126 1.36 1.89 2.986 1.822 3.87 2.335 8.558 2.444 11.81.445 13.169-3.25 28.677-4.334 32.913-1.085-4.236-4.78-19.743-4.334-32.914.11-3.252.623-7.94 2.444-11.81.764-1.624 1.511-2.566 1.89-2.985m-5.063 14.771c-.43 12.715 2.964 27.57 4.209 32.536a94 94 0 0 1-5.493-10.002c-2.86-6.072-6.165-14.991-5.666-22.991.215-3.466.984-6.383 2.284-8.672 1.031-1.817 2.4-3.244 4.067-4.243a11.3 11.3 0 0 1 4.823-1.546c-1.241 1.523-3.916 5.832-4.223 14.918zm10.127 0c-.308-9.086-2.983-13.395-4.223-14.918a11.34 11.34 0 0 1 4.823 1.546c1.666 1 3.035 2.426 4.066 4.243 1.3 2.289 2.068 5.206 2.285 8.672.498 7.999-2.806 16.917-5.667 22.991a94 94 0 0 1-5.493 10.002c1.245-4.966 4.64-19.821 4.21-32.536zM49.056 29.66a12 12 0 0 0-5.06 1.629c-1.784 1.06-3.246 2.576-4.346 4.504-1.362 2.39-2.167 5.42-2.39 9.01C36.75 52.959 40.1 62.007 43 68.16a95 95 0 0 0 5.025 9.26c-1.6-1.562-3.757-4.055-6.188-7.185-3.232-4.157-6.254-8.544-7.186-10.432-2.186-4.427-3.342-9.163-3.342-13.697 0-2.676.486-5.424 1.405-7.947 1.031-2.83 2.335-4.934 3.877-6.253 1.796-1.535 4.098-2.574 6.482-2.924 1.334-.196 2.636-.123 3.736-.027q1.418.127 2.249.704zm2.92 47.762a95 95 0 0 0 5.025-9.26c2.9-6.155 6.25-15.202 5.74-23.359-.223-3.59-1.027-6.62-2.39-9.01-1.1-1.928-2.562-3.444-4.346-4.504a12 12 0 0 0-5.06-1.629q.83-.578 2.249-.704c1.098-.097 2.401-.169 3.735.027 2.385.35 4.687 1.389 6.483 2.924 1.541 1.319 2.845 3.423 3.877 6.253a23.5 23.5 0 0 1 1.404 7.947c0 4.533-1.155 9.27-3.342 13.697-.932 1.888-3.954 6.275-7.185 10.432-2.432 3.13-4.588 5.623-6.189 7.186m-4.003-49.014a7 7 0 0 0-1.102-.179c-1.074-.095-2.489-.176-3.905.031-2.519.37-4.952 1.468-6.85 3.092-1.639 1.401-3.014 3.607-4.089 6.558a24.2 24.2 0 0 0-1.449 8.197c0 4.645 1.181 9.493 3.417 14.02 1.477 2.992 7.606 11.448 12.048 16.282-3.425-2.752-7.422-6.719-10.83-10.103l-1.01-1.002c-5.276-5.22-9.253-14.492-9.253-21.564 0-3.991 1.459-8.414 3.902-11.832 2.728-3.816 6.337-5.917 10.16-5.917 2.755 0 4.709.273 6.335.886a8.8 8.8 0 0 1 2.626 1.532m18.031 31.719c2.236-4.527 3.417-9.375 3.417-14.02 0-2.76-.501-5.595-1.449-8.197-1.074-2.95-2.45-5.156-4.088-6.558-1.9-1.624-4.332-2.722-6.85-3.092-1.417-.208-2.832-.126-3.906-.03a7 7 0 0 0-1.102.178 8.8 8.8 0 0 1 2.626-1.532c1.626-.613 3.58-.887 6.335-.887 3.824 0 7.433 2.103 10.16 5.918 2.443 3.418 3.902 7.84 3.902 11.831 0 7.073-3.977 16.344-9.252 21.566l-1.01 1.002c-3.409 3.384-7.406 7.351-10.83 10.103 4.441-4.835 10.57-13.29 12.047-16.282m-47.41-18.91c0-4.916 1.73-9.542 4.869-13.027 3.274-3.635 7.82-5.637 12.8-5.637 4.043 0 7.496 1.364 10.461 4.147-2.165-1.137-4.736-1.439-7.71-1.439-4.067 0-7.886 2.21-10.755 6.223-2.528 3.537-4.037 8.118-4.037 12.256 0 3.6.987 7.844 2.78 11.95 1.743 3.99 4.118 7.588 6.688 10.133q.498.492 1.01 1.002c3.118 3.097 6.49 6.445 9.553 9.056-4.024-2.52-9.355-6.277-14.066-10.976-7.693-7.664-11.593-15.634-11.593-23.687zm51.22 23.687C65.102 69.602 59.77 73.36 55.747 75.88c3.063-2.612 6.435-5.96 9.554-9.056l1.01-1.001c2.57-2.544 4.945-6.143 6.688-10.134 1.793-4.105 2.78-8.349 2.78-11.95 0-4.136-1.509-8.717-4.037-12.255-2.869-4.013-6.688-6.223-10.754-6.223-2.974 0-5.545.302-7.71 1.439 2.964-2.782 6.417-4.147 10.46-4.147 4.98 0 9.527 2.002 12.8 5.637 3.14 3.485 4.87 8.111 4.87 13.027 0 8.053-3.9 16.023-11.593 23.687z"/></svg>
